X: 765
T: Airaidh Nam Badan
R: jig
M: 6/8
K: Fmajor
|:cFF FGA|cdc AGF|G3 GAc|d3 f2d|
cFF FGA|cdc AGF|G3 GAc|d3 c2A:|
|:cdf f3|gag gfd|cdf f3|g3 f2g|
aff gdd|fcc cdd|AGG GAc|d3 c2A:|

